Simply-Orange-Circles/scalable/apps/krusader_root.svg

<svg xmlns="http://www.w3.org/2000/svg" width="48" height="48" viewBox="0 0 12.7 12.7"><path d="M6.34.07a6.29 6.29 0 0 0-6.29 6.3 6.29 6.29 0 0 0 6.3 6.28 6.29 6.29 0 0 0 6.28-6.29A6.29 6.29 0 0 0 6.34.07zm-.25.95v10.8a5.4 5.4 0 0 1-5.17-5.4 5.4 5.4 0 0 1 5.17-5.4zm.6 0a5.4 5.4 0 0 1 5.04 5.4 5.4 5.4 0 0 1-5.05 5.4V1.01z" fill="#ff7f2a"/><path d="M3.16 2.65v.46H5.4v-.46H3.16zm4.17 0v.46h2.25v-.46H7.33zM2.46 4.23v.47H5.4v-.47H2.46zm4.87 0v.47h2.94v-.47H7.33zM1.84 5.82v.47H5.4v-.47H1.84zm5.5 0v.47h3.55v-.47H7.33z" fill="purple" opacity=".75"/></svg>

<?xml version="1.0" encoding="UTF-8" standalone="no"?>
<svg
   xmlns:dc="http://purl.org/dc/elements/1.1/"
   xmlns:cc="http://creativecommons.org/ns#"
   xmlns:rdf="http://www.w3.org/1999/02/22-rdf-syntax-ns#"
   xmlns:svg="http://www.w3.org/2000/svg"
   xmlns="http://www.w3.org/2000/svg"
   xmlns:sodipodi="http://sodipodi.sourceforge.net/DTD/sodipodi-0.dtd"
   xmlns:inkscape="http://www.inkscape.org/namespaces/inkscape"
   width="48"
   height="48"
   viewBox="0 0 12.7 12.7"
   version="1.1"
   id="svg6"
   sodipodi:docname="krusader_root.svg"
   inkscape:version="0.92.4 (5da689c313, 2019-01-14)">
  <metadata
     id="metadata12">
    <rdf:RDF>
      <cc:Work
         rdf:about="">
        <dc:format>image/svg+xml</dc:format>
        <dc:type
           rdf:resource="http://purl.org/dc/dcmitype/StillImage" />
        <dc:title></dc:title>
      </cc:Work>
    </rdf:RDF>
  </metadata>
  <defs
     id="defs10" />
  <sodipodi:namedview
     pagecolor="#ffffff"
     bordercolor="#666666"
     borderopacity="1"
     objecttolerance="10"
     gridtolerance="10"
     guidetolerance="10"
     inkscape:pageopacity="0"
     inkscape:pageshadow="2"
     inkscape:window-width="1087"
     inkscape:window-height="480"
     id="namedview8"
     showgrid="false"
     inkscape:zoom="4.9166667"
     inkscape:cx="2.1355932"
     inkscape:cy="24"
     inkscape:window-x="0"
     inkscape:window-y="25"
     inkscape:window-maximized="0"
     inkscape:current-layer="svg6" />
  <path
     d="M 6.34,0.07 A 6.29,6.29 0 0 0 0.05,6.37 6.29,6.29 0 0 0 6.35,12.65 6.29,6.29 0 0 0 12.63,6.36 6.29,6.29 0 0 0 6.34,0.07 Z M 6.09,1.02 v 10.8 A 5.4,5.4 0 0 1 0.92,6.42 5.4,5.4 0 0 1 6.09,1.02 Z m 0.6,0 a 5.4,5.4 0 0 1 5.04,5.4 5.4,5.4 0 0 1 -5.05,5.4 V 1.01 Z"
     id="path2"
     inkscape:connector-curvature="0"
     style="fill:#ff7f2a" />
  <path
     d="M 3.16,2.65 V 3.11 H 5.4 V 2.65 Z m 4.17,0 V 3.11 H 9.58 V 2.65 Z M 2.46,4.23 V 4.7 H 5.4 V 4.23 Z m 4.87,0 V 4.7 h 2.94 V 4.23 Z M 1.84,5.82 V 6.29 H 5.4 V 5.82 Z m 5.5,0 v 0.47 h 3.55 V 5.82 H 7.33 Z"
     id="path4"
     inkscape:connector-curvature="0"
     style="opacity:0.75;fill:#800080" />
</svg>
